X: 28272
T: Mrs. MacDouall Grant
R: march
M: 
K: Fmajor
M:2/4
c|A/B/c cA|Bdd2|A/B/c AF|EGG2|A/B/c cA|B/c/d/e/ fe/d/|cA BG|1 F2Fc:|2 F2Ff||
g2a2|fc fa|gf/g/ af|eg ga|g2a2|fc fe/d/|cA BG|F2Fc|
g2a2|fc fa|gf/g/ af|eg gf/g/|af df|ec fd|cA BA/G/|F2F||

